src/pos-icons/lightbulb-multiple.svg

<svg height="24" viewBox="0 0 24 24" width="24" xmlns="http://www.w3.org/2000/svg"><path d="m17 16v2c0 .55-.47 1-1 1h-4c-.58 0-1-.45-1-1v-2c-2.23-1.66-2.68-4.79-1-7s4.77-2.66 7-1 2.63 4.79 1 7c-.31.38-.65.72-1 1m-1 4h-4v1c0 .55.42 1 1 1h2c.53 0 1-.45 1-1m-8.34-6h-.66v1c0 .55.42 1 1 1h1v-.12c-.56-.55-1-1.18-1.34-1.88m5.92-10c-1.12-2.53-4.08-3.67-6.58-2.55s-3.69 4.05-2.57 6.59c.34.77.87 1.46 1.57 1.96v2c0 .55.42 1 1 1h.28c-.21-.65-.31-1.32-.28-2-.03-3.71 2.87-6.79 6.58-7z"/></svg>

<?xml version="1.0" encoding="UTF-8"?><!DOCTYPE svg PUBLIC "-//W3C//DTD SVG 1.1//EN" "http://www.w3.org/Graphics/SVG/1.1/DTD/svg11.dtd"><svg xmlns="http://www.w3.org/2000/svg" xmlns:xlink="http://www.w3.org/1999/xlink" version="1.1" id="mdi-lightbulb-multiple" width="24" height="24" viewBox="0 0 24 24"><path d="M17 16V18C17 18.55 16.53 19 16 19H12C11.42 19 11 18.55 11 18V16C8.77 14.34 8.32 11.21 10 9S14.77 6.34 17 8 19.63 12.79 18 15C17.69 15.38 17.35 15.72 17 16M16 20H12V21C12 21.55 12.42 22 13 22H15C15.53 22 16 21.55 16 21M7.66 15H7V16C7 16.55 7.42 17 8 17H9V16.88C8.44 16.33 8 15.7 7.66 15M13.58 5C12.46 2.47 9.5 1.33 7 2.45S3.31 6.5 4.43 9.04C4.77 9.81 5.3 10.5 6 11V13C6 13.55 6.42 14 7 14H7.28C7.07 13.35 6.97 12.68 7 12C6.97 8.29 9.87 5.21 13.58 5Z" /></svg>
